10/img/souvenirs.svg

<svg width="40" height="40" viewBox="0 0 40 40" fill="none" xmlns="http://www.w3.org/2000/svg">
<path d="M34.5778 12.2058H34.527H22.1841C29.0921 8.76156 29.6508 6.58358 29.3968 5.36796C28.8381 3.39259 26.5524 1.87307 24.419 2.68348C21.6254 3.74714 20.8635 7.9005 20.1016 10.8889C19.1365 7.84985 18.2222 4.0004 16.0381 2.02502C15.4286 1.46786 14.5143 0.910706 13.1429 1.01201C11.1111 1.21461 8.21587 3.69649 9.43492 6.48228C10.5524 9.16676 14.2603 10.8889 16.7492 12.2565H5.42222C4.60952 12.2565 4 12.9149 4 13.6747V19.3475C4 20.158 4.66032 20.7658 5.42222 20.7658H5.5746V39H34.527V20.7658H34.5778C35.3905 20.7658 36 20.1073 36 19.3475V13.6747C36 12.8643 35.3397 12.2058 34.5778 12.2058ZM25.2317 3.94975C26.2984 3.79779 27.7206 4.6082 27.873 5.57057C28.0762 6.93813 26.1968 8.2044 25.3333 8.76156C24.0635 9.62262 22.8444 10.0785 21.6762 10.7876C22.0825 8.91351 22.946 4.25365 25.2317 3.94975ZM13.7524 8.91351C12.6349 8.15375 10.5016 6.68488 10.5524 5.01341C10.6032 3.18999 13.4476 1.72112 14.9714 3.08868C16.9016 4.76016 17.8159 8.66026 18.527 11.3954C16.9016 10.585 15.3778 9.97717 13.7524 8.91351ZM16.7492 37.4805H7.04762V20.7658H16.7492V37.4805ZM16.7492 19.2462H5.52381V13.7253H16.7492V19.2462ZM21.8286 37.4805H18.2222V13.7253H21.8286V37.4805ZM33.0032 37.4805H23.3524V20.7658H33.054V37.4805H33.0032ZM34.4762 19.2462H23.3524V13.7253H34.4762V19.2462Z" fill="#81B3D2"/>
</svg>

<svg width="40" height="40" fill="none" xmlns="http://www.w3.org/2000/svg"><path d="M34.578 12.206H22.184c6.908-3.444 7.467-5.622 7.213-6.838-.559-1.975-2.845-3.495-4.978-2.685-2.794 1.064-3.556 5.217-4.317 8.206-.965-3.04-1.88-6.889-4.064-8.864-.61-.557-1.524-1.114-2.895-1.013-2.032.203-4.927 2.684-3.708 5.47 1.117 2.685 4.825 4.407 7.314 5.775H5.422c-.812 0-1.422.658-1.422 1.418v5.672c0 .811.66 1.419 1.422 1.419h.153V39h28.952V20.766h.05c.814 0 1.423-.659 1.423-1.418v-5.673c0-.81-.66-1.47-1.422-1.47zM25.232 3.95c1.066-.152 2.489.658 2.641 1.62.203 1.368-1.676 2.634-2.54 3.192-1.27.86-2.489 1.316-3.657 2.026.407-1.874 1.27-6.534 3.556-6.838zm-11.48 4.964c-1.117-.76-3.25-2.23-3.2-3.9.051-1.824 2.896-3.293 4.42-1.925 1.93 1.671 2.844 5.571 3.555 8.306-1.625-.81-3.15-1.418-4.775-2.481zM16.75 37.48H7.048V20.767h9.701V37.48zm0-18.234H5.524v-5.52h11.225v5.52zm5.08 18.235h-3.607V13.724h3.607V37.48zm11.174 0h-9.65V20.765h9.701V37.48h-.05zm1.473-18.235H23.352v-5.52h11.124v5.52z" fill="#81B3D2"/></svg>
